X:1

T:Rob Donn Mackay the Poet

T:Rob Donn

M:C

L:1/8

R:Air

S:Fraser Collection (1874)

Z:AK/Fiddler’s Companion

K:F
F2 ED F2 DC | A2 A^G A2 z2 | AdcB AcBc | A2 G2 F2 z2 | (F2 F)G A2 Ac |

AGFG A3G | F3E D/E/F/G/ A>G | F2 E2 F4 || ^C2 D2 A,4 | A2 c>d f2d2 |

dcAG F2 AG | F2 E2 F4 | ^C2 D2 A,4 | A2 c2 f3d | cBAG F2 AG | F2 E2 D4 ||

                       


ROBBER, THE (An Foghlaidhe). AKA and see "Charley Reilly," "The Croppy Boy [2]." Irish, Air (3/4 time). B Flat Major. Standard tuning. One part. O'Sullivan (1983) finds the tune a variant of "Cailin o chois tSiuire" (The Croppy Boy), common to the British Isles.  Several variants are included in English folk song collections; for example in Peter Kennedy's Folksongs of Britain and Ireland as  "Newlyn Town," and in Kidson's 1926 A Garland of English Folk Songs beginning "In Newlyn town I was born and bred." O'Sullivan refers those interested in further variants to Margaret Dean-Smith's 1954 A Guide to English Folk Song Collections. Source for notated version: the Irish collector Edward Bunting noted the music and words at Drogheda in 1803, according to the index of his 1840 collection. O'Sullivan/Bunting, 1983; No. 65, pgs. 100-101.

                       

ROBBIE HOBKIRK'S POLKA. Scottish, Polka; English, Morris Dance Tune (4/4 time). D Major. Standard tuning. AA'B (Carlin): AABB (Wade). The tune, composed by Robbie Hobkird of Hawick, has been used for a polka step in the North‑West (England) morris dance tradition and as a country dance tune. Carlin (Master Collection), 1984; No. 127, pg. 79. Wade (Mally’s North West Morris Book), 1988; pg. 10. Topic 12TS382, New Victory Band ‑ "One More Dance and Then" (1978).

                       

ROBBIE MURDOCH. Scottish, Hornpipe. D Major. Standard tuning. AABB. Composed by David A. Gordon. Martin & Hughes (Ho-ro-ghedllaedh), 1990; pg. 46.

                       

ROBBIE TAMPSON'S SMIDDIE (Robbie Thompson's Smithie). AKA and see "Billiaclett." Shetland, Scotland. A variation of this tune is the Shetlands tune "Billiaclett" or "Baljaclett." Cooke (1986) prints the following text to this dance tune, collected in the Shetlands:

***

My mother made me grey breeks...

[etc.: the well‑known Scots version]

                                   

ROBBIE THOMPSON'S SMITHIE. See "Robbie Tampson's Smiddie."

           

ROBBIN POWERS FANCY. Irish, Jig. D Major. Standard tuning. AABB. O’Farrell (Pocket Companion, vol. II), c. 1806; pg. 85.

